X:1
T:Title
%%score ( 1 2 ) ( 3 4 )
L:1/8
Q:1/4=80
M:4/4
K:D
V:1 treble nm="Strings 1, SOPRANO ALTO"
V:2 treble 
V:3 bass nm="Strings 1, TENOR BASS"
V:4 bass 
V:1
 z4 z2 DF | [FA]3 [GB] [FA][DF] D2 | [Dd]3 [Gc] [GB]2 [Gd]2 | [FA]3 [FA] [GB][FA][DF]D | [CE]6 DF | %5
 [FA]3 [GB] [FA][DF] D2 | [Dd]3 [Gc] [GB]2 [Gd]2 | [FA]3 [EG] [DF]2 [CE]2 | D6 z2 | %9
 [Fd]4 [Ac]2 [GB]2 | [FA]3 [DF] D4 | [GB]3 [GB] [FA]2 [DF]D | [CE]6 z2 | [FA]3 [GB] [FA][DF] D2 | %14
 d4 z4 | [FA][DF]D[DE] [DF]2 [CE]2 | D6 z2 |] %17
V:2
 x8 | x8 | x8 | x8 | x8 | x8 | x8 | x8 | x8 | x8 | x8 | x8 | x8 | x8 | D3- [Dc] [GB]4 | x8 | x8 |] %17
V:3
 z4 z2 F,A, | [D,D]3 [D,D] DA, [D,F,]2 | [G,,B,]3 [G,,D] [G,,D]2 [B,,D]2 | %3
 [D,D]3 [D,D] [D,D]2 A,F, | [A,,A,]6 F,A, | [D,D]3 [D,D] DA, [D,F,]2 | %6
 [G,,B,]3 [G,,D] [G,,D]2 [G,,B,]2 | [A,,D]3 [A,,A,] [A,,A,]2 [A,,G,]2 | [D,F,]6 z2 | %9
 [D,A,]4 [D,B,]2 [D,C]2 | [D,D]3 [D,A,] [D,F,]4 | [G,D]3 [G,D] [D,D]2 A,F, | [A,,A,]6 z2 | %13
 [D,D]3 [D,D] DA, [D,F,]2 | [G,,B,]4 [G,,D]4 | [D,D][D,A,][F,A,][G,B,] A,2 [G,,G,]2 | [D,F,]6 z2 |] %17
V:4
 z4 z2 D,2 | z4 D,2 z2 | x8 | z4 z2 D,2 | z4 z2 D,2 | z4 D,2 z2 | x8 | x8 | x8 | x8 | x8 | %11
 z4 z2 B,,2 | x8 | z4 D,2 z2 | x8 | x8 | x8 |] %17

